public/static/img/home/fire.svg

<svg xmlns="http://www.w3.org/2000/svg" viewBox="0 0 12 14"><path d="M4.49621 13.9937C4.49621 13.9937 -1.73347 12.5172 0.936838 5.875C1.24621 6.15938 1.43371 6.65625 1.57903 6.94531C1.91496 3.4625 4.5259 3.12344 4.1509 0C5.16028 0.359375 8.34309 1.41875 8.8384 5.31719C9.3134 4.42812 10.0447 3.95469 10.5993 3.86094C10.4603 4.56094 10.6868 5.76719 11.1931 7.00156C11.9743 8.9125 12.0243 12.7156 8.08684 13.7016C8.68059 12.3188 8.91809 10.0766 5.9509 8.17656C5.4259 10.5797 2.7759 11.2188 4.49621 13.9937Z" fill="#E53E00"/></svg>

<svg xmlns="http://www.w3.org/2000/svg" viewBox="0 0 12 14"><path d="M4.496 13.994s-6.23-1.477-3.56-8.119c.31.284.498.781.643 1.07C1.915 3.462 4.526 3.123 4.151 0c1.01.36 4.192 1.419 4.687 5.317.475-.889 1.207-1.362 1.761-1.456-.139.7.088 1.906.594 3.14.781 1.911.831 5.715-3.106 6.7.594-1.382.831-3.624-2.136-5.524-.525 2.403-3.175 3.042-1.455 5.817Z" fill="#E53E00"/></svg>
